dist/icons/services/brand-awareness.svg

<svg width="81" height="80" viewBox="0 0 81 80" fill="none" xmlns="http://www.w3.org/2000/svg">
<path d="M49.2452 52.7259C47.6899 52.7858 46.1501 52.397 44.8096 51.6061C43.469 50.8152 42.3842 49.6554 41.6845 48.2651C40.9092 46.4348 40.8731 44.3754 41.5837 42.519C42.4766 40.2102 44.2418 38.3454 46.4981 37.3273C48.4788 36.2894 50.7868 36.0669 52.9292 36.7073C55.0717 37.3477 56.879 38.8002 57.9652 40.7548C58.3855 41.6671 58.6199 42.6541 58.6545 43.658C58.6891 44.6619 58.5233 45.6627 58.1668 46.6018C57.7191 47.7647 57.0421 48.8258 56.1762 49.7219C55.3104 50.6181 54.2732 51.3312 53.1264 51.8187C51.9094 52.3864 50.5878 52.6954 49.2452 52.7259ZM50.6061 40.3516C49.7379 40.3458 48.8785 40.5263 48.0859 40.8808C46.8363 41.4689 45.8615 42.516 45.364 43.8043C45.1761 44.2378 45.0791 44.7053 45.0791 45.1778C45.0791 45.6504 45.1761 46.1178 45.364 46.5514C45.9821 47.5699 46.974 48.3063 48.1279 48.603C49.2818 48.8997 50.5059 48.7332 51.5386 48.1391C52.8262 47.5849 53.8413 46.5426 54.3613 45.2408C54.5485 44.8027 54.645 44.3312 54.645 43.8547C54.645 43.3783 54.5485 42.9067 54.3613 42.4686C54.0022 41.7945 53.4579 41.2372 52.7926 40.8621C52.1273 40.4871 51.3687 40.3099 50.6061 40.3516Z" fill="#C3B18D"/>
<path d="M35.7622 79.9948C31.21 80.0735 26.687 79.2525 22.4529 77.5787C18.2189 75.905 14.357 73.4116 11.089 70.2415C7.62961 67.0111 4.86278 63.1114 2.95655 58.779C1.05031 54.4467 0.0444397 49.7721 0 45.0391C0 33.9501 5.04047 22.7603 14.3149 13.5362C18.6348 9.18917 23.782 5.75191 29.4526 3.42743C35.1231 1.10295 41.2019 -0.0616161 47.3301 0.00251141H47.6325C56.0249 0.00251141 64.8961 3.75766 65.879 11.9232C66.4082 16.3841 64.3921 20.6685 62.6279 24.5244C61.2418 27.4731 59.8304 30.5478 60.8133 31.6063C61.7962 32.6648 63.3336 31.9087 66.0806 31.1022C68.7824 30.0212 71.7302 29.7073 74.599 30.195C75.6158 30.4844 76.5605 30.9838 77.3723 31.661C78.1841 32.3382 78.8448 33.1781 79.3119 34.1265C81.6809 38.7386 80.4964 45.896 78.7322 50.6089C76.4606 56.8321 72.807 62.459 68.0464 67.066C59.2293 75.1805 47.743 79.7804 35.7622 79.9948ZM47.3301 5.11859C41.8525 5.07414 36.4219 6.13102 31.3609 8.22645C26.2998 10.3219 21.7115 13.4131 17.8685 17.3165C9.5517 25.4569 5.04047 35.3614 5.04047 45.0391C5.08392 49.1124 5.95532 53.1343 7.60168 56.8603C9.24805 60.5863 11.635 63.9385 14.6174 66.7132C28.1763 79.9444 51.4632 75.66 64.6945 63.3613C68.8414 59.2841 72.027 54.3335 74.0194 48.8699C75.7835 44.0815 76.1364 38.9906 74.8258 36.4703C74.6823 36.1436 74.4711 35.8511 74.206 35.6122C73.941 35.3732 73.6283 35.1932 73.2885 35.0842C71.3217 34.9087 69.3417 35.2114 67.5172 35.9663C64.2156 36.9492 59.9564 38.2093 57.1338 35.0842C53.8071 31.5559 55.9745 26.8934 58.0663 22.483C59.8348 19.5045 60.7988 16.1175 60.8637 12.6541C60.2589 7.61363 53.7819 5.2194 47.6073 5.09339L47.3301 5.11859Z" fill="#C3B18D"/>
<path d="M55.1176 61.7988C54.8317 60.8628 54.3389 60.0031 53.6759 59.2833C53.0128 58.5635 52.1963 58.002 51.2869 57.6404L50.4048 57.3884L49.2455 61.2444H49.6487C49.9988 61.3728 50.316 61.5773 50.5775 61.8431C50.839 62.109 51.0382 62.4295 51.1609 62.7817C51.5893 64.2938 50.1276 66.0832 47.9854 66.6881C45.8432 67.2929 43.6758 66.5116 43.2473 65.0247L39.3662 66.1084C39.8699 67.5822 40.8423 68.8506 42.1348 69.7198C43.4272 70.589 44.9686 71.0113 46.5236 70.9221C47.3752 70.9114 48.2221 70.7928 49.0439 70.5692C51.0101 70.2074 52.7531 69.0815 53.8913 67.4379C55.0296 65.7943 55.4705 63.7667 55.1176 61.7988ZM32.9395 59.1273C32.5289 57.9023 31.7816 56.8176 30.7832 55.9975C29.7848 55.1774 28.5757 54.655 27.2942 54.4901L26.6138 58.4721C27.1595 58.4909 27.688 58.6675 28.1353 58.9807C28.5827 59.2938 28.9296 59.7299 29.134 60.2363C29.5624 61.7232 28.1007 63.5126 25.9585 64.1174C24.885 64.458 23.7263 64.4134 22.6822 63.9914C22.3321 63.863 22.0149 63.6585 21.7534 63.3926C21.4919 63.1268 21.2927 62.8062 21.17 62.4541C21.17 62.4541 21.17 62.2272 21.17 62.1264L17.1881 62.5297C17.2026 62.8784 17.2532 63.2247 17.3393 63.563C17.6172 64.4914 18.0985 65.3463 18.748 66.0656C19.3975 66.7848 20.1991 67.3505 21.0944 67.7214C22.1418 68.1499 23.2644 68.3641 24.3959 68.3514C25.2482 68.3495 26.0962 68.2308 26.9162 67.9986C27.8955 67.8142 28.8287 67.4381 29.6621 66.8918C30.4956 66.3456 31.2128 65.6399 31.7726 64.8155C32.3323 63.991 32.7236 63.0641 32.9239 62.0879C33.1242 61.1117 33.1295 60.1056 32.9395 59.1273ZM22.1277 42.9474C21.8418 42.0115 21.349 41.1518 20.686 40.4319C20.0229 39.7121 19.2064 39.1507 18.297 38.789C17.8899 38.6169 17.4682 38.482 17.0369 38.3858L16.1044 42.3174C16.3211 42.3615 16.5323 42.4291 16.7344 42.519C17.0819 42.6448 17.3975 42.8454 17.6588 43.1067C17.9201 43.368 18.1208 43.6836 18.2466 44.0311C18.675 45.5433 17.2133 47.3326 15.0711 47.9375C12.9289 48.5424 10.7615 47.7863 10.333 46.2741C10.2578 45.9508 10.2578 45.6146 10.333 45.2912L6.40145 44.4344C6.16241 45.3942 6.16241 46.398 6.40145 47.3578C6.90749 48.8404 7.88756 50.1151 9.19031 50.9852C10.4931 51.8552 12.046 52.2721 13.6093 52.1715C14.4609 52.1608 15.3078 52.0423 16.1296 51.8187C17.1066 51.6314 18.0371 51.2532 18.8677 50.7057C19.6983 50.1582 20.4127 49.4521 20.9699 48.628C21.5271 47.8039 21.9162 46.8779 22.1149 45.9031C22.3136 44.9283 22.3179 43.9239 22.1277 42.9474ZM28.8568 23.3652C28.5708 22.4292 28.0781 21.5695 27.415 20.8497C26.7519 20.1299 25.9354 19.5684 25.026 19.2068C24.8628 19.1415 24.6941 19.0909 24.522 19.0556L23.2114 22.8611C23.2951 22.85 23.3798 22.85 23.4635 22.8611C23.811 22.9869 24.1265 23.1876 24.3879 23.4489C24.6492 23.7102 24.8498 24.0258 24.9756 24.3733C25.404 25.8854 23.9423 27.6748 21.8001 28.2796C20.7387 28.5815 19.6088 28.5374 18.5742 28.1536C18.2241 28.0252 17.9069 27.8207 17.6454 27.5549C17.3839 27.289 17.1847 26.9685 17.0621 26.6163C17.011 26.3499 17.011 26.0762 17.0621 25.8098L13.0801 25.331C12.9665 26.1226 13.018 26.9292 13.2313 27.7C13.4969 28.6472 13.9756 29.5212 14.6308 30.2551C15.2861 30.9889 16.1004 31.5632 17.0117 31.934C18.0574 32.3705 19.18 32.5933 20.3132 32.5893C21.1648 32.5786 22.0116 32.46 22.8334 32.2364C23.8127 32.0521 24.7459 31.6759 25.5793 31.1297C26.4128 30.5834 27.13 29.8777 27.6898 29.0533C28.2495 28.2289 28.6408 27.3019 28.8411 26.3257C29.0414 25.3496 29.0467 24.3434 28.8568 23.3652ZM47.8846 11.7217C47.6036 10.7832 47.1127 9.92103 46.4489 9.20053C45.7852 8.48003 44.9661 7.92013 44.0538 7.5633L43.2977 7.31128L42.088 11.1672H42.466C42.8161 11.2957 43.1334 11.5002 43.3948 11.766C43.6563 12.0319 43.8556 12.3524 43.9782 12.7046C44.4066 14.2167 42.9449 15.9809 40.8027 16.5858C38.6605 17.1906 36.4931 16.4345 36.0646 14.9476C35.9514 14.4571 36.0046 13.9428 36.2159 13.4859L32.4859 12.0241C31.9218 13.3195 31.8152 14.7681 32.1835 16.1321C32.6909 17.6036 33.6641 18.8696 34.9557 19.7382C36.2472 20.6068 37.7868 21.0308 39.341 20.9458C40.1947 20.9396 41.0432 20.8123 41.8612 20.5677C42.8379 20.3832 43.7687 20.0079 44.6003 19.4633C45.4318 18.9187 46.1478 18.2154 46.7073 17.3938C47.2667 16.5721 47.6587 15.6482 47.8607 14.675C48.0627 13.7017 48.0708 12.6981 47.8846 11.7217Z" fill="#C3B18D"/>
</svg>

<svg width="81" height="80" fill="none" xmlns="http://www.w3.org/2000/svg">
    <path d="M49.245 52.726a8.115 8.115 0 0 1-7.56-4.46 7.687 7.687 0 0 1-.101-5.747 9.426 9.426 0 0 1 4.914-5.192 8.569 8.569 0 0 1 11.467 3.428 7.56 7.56 0 0 1 .202 5.847 9.297 9.297 0 0 1-5.04 5.217 9.702 9.702 0 0 1-3.882.907Zm1.361-12.374a6.073 6.073 0 0 0-2.52.529 5.368 5.368 0 0 0-2.722 2.923 3.454 3.454 0 0 0 0 2.747 4.562 4.562 0 0 0 6.175 1.588 5.293 5.293 0 0 0 2.822-2.898 3.528 3.528 0 0 0 0-2.772 4.007 4.007 0 0 0-3.755-2.117Z" fill="#C3B18D"/>
    <path d="M35.762 79.995A34.577 34.577 0 0 1 11.09 70.24 34.93 34.93 0 0 1 0 45.04c0-11.09 5.04-22.28 14.315-31.504A45.868 45.868 0 0 1 47.33.003h.303c8.392 0 17.263 3.755 18.246 11.92.53 4.461-1.487 8.746-3.251 12.601-1.386 2.95-2.798 6.024-1.815 7.082.983 1.059 2.52.303 5.268-.504a15.802 15.802 0 0 1 8.518-.907 7.56 7.56 0 0 1 4.713 3.931c2.369 4.613 1.184 11.77-.58 16.483a43.802 43.802 0 0 1-10.686 16.457 48.968 48.968 0 0 1-32.284 12.929ZM47.33 5.119a40.878 40.878 0 0 0-29.46 12.198C9.552 25.457 5.04 35.36 5.04 45.038a30.042 30.042 0 0 0 9.577 21.674c13.56 13.231 36.846 8.947 50.078-3.352a39.116 39.116 0 0 0 9.324-14.491c1.764-4.788 2.117-9.88.807-12.4a2.518 2.518 0 0 0-1.537-1.386 12.248 12.248 0 0 0-5.772.882c-3.301.983-7.56 2.243-10.383-.882-3.327-3.528-1.16-8.19.932-12.601a19.985 19.985 0 0 0 2.798-9.829c-.605-5.04-7.082-7.435-13.257-7.56l-.277.025Z" fill="#C3B18D"/>
    <path d="M55.118 61.799a6.528 6.528 0 0 0-3.831-4.159l-.882-.252-1.16 3.856h.404a2.52 2.52 0 0 1 1.512 1.538c.428 1.512-1.033 3.301-3.176 3.906-2.142.605-4.31-.176-4.738-1.663l-3.88 1.083a7.131 7.131 0 0 0 7.157 4.814 10.08 10.08 0 0 0 2.52-.353 7.56 7.56 0 0 0 6.074-8.77ZM32.94 59.127a6.88 6.88 0 0 0-5.646-4.637l-.68 3.982a2.822 2.822 0 0 1 2.52 1.764c.428 1.487-1.033 3.277-3.175 3.881a4.838 4.838 0 0 1-3.277-.126 2.52 2.52 0 0 1-1.512-1.537v-.328l-3.982.404c.015.348.065.695.151 1.033a6.527 6.527 0 0 0 3.755 4.158 8.468 8.468 0 0 0 3.302.63c.852-.001 1.7-.12 2.52-.352a7.56 7.56 0 0 0 6.024-8.872Zm-10.812-16.18a6.53 6.53 0 0 0-3.831-4.158 7.34 7.34 0 0 0-1.26-.403l-.933 3.931c.217.044.428.112.63.202a2.52 2.52 0 0 1 1.513 1.512c.428 1.512-1.034 3.302-3.176 3.907-2.142.604-4.31-.152-4.738-1.664a2.17 2.17 0 0 1 0-.983l-3.932-.857a6.048 6.048 0 0 0 0 2.924 7.133 7.133 0 0 0 7.208 4.814c.852-.011 1.699-.13 2.52-.353a7.562 7.562 0 0 0 5.999-8.872Zm6.729-19.582a6.528 6.528 0 0 0-3.831-4.158 2.955 2.955 0 0 0-.504-.151l-1.31 3.805a.958.958 0 0 1 .252 0 2.522 2.522 0 0 1 1.512 1.512c.428 1.512-1.034 3.302-3.176 3.907a5.191 5.191 0 0 1-3.226-.126 2.52 2.52 0 0 1-1.512-1.538 2.14 2.14 0 0 1 0-.806l-3.982-.479a5.796 5.796 0 0 0 .151 2.369 6.453 6.453 0 0 0 3.78 4.234 8.493 8.493 0 0 0 3.302.655c.852-.01 1.699-.129 2.52-.353a7.56 7.56 0 0 0 6.024-8.87Zm19.028-11.643a6.452 6.452 0 0 0-3.831-4.159l-.756-.252-1.21 3.856h.378a2.521 2.521 0 0 1 1.512 1.538c.429 1.512-1.033 3.276-3.175 3.88-2.142.606-4.31-.15-4.738-1.637a2.268 2.268 0 0 1 .15-1.462l-3.73-1.462a6.225 6.225 0 0 0-.301 4.108 7.157 7.157 0 0 0 7.157 4.814 9.026 9.026 0 0 0 2.52-.378 7.562 7.562 0 0 0 6.024-8.846Z" fill="#C3B18D"/>
</svg>
